exports/children-per-woman-UN-15a2f82ca104f101a94a50b8aa5bebaf_v1_850x600.svg

<svg xmlns="http://www.w3.org/2000/svg" version="1.1" style="background-color:#fff;-webkit-font-smoothing:antialiased" width="850" height="600" font-family="'Helvetica Neue',Helvetica,Arial,sans-serif" font-size="18" text-rendering="optimizeLegibility"><g class="ChartTab"><g class="HeaderView"><g opacity=".8" transform="matrix(.31 0 0 .31 770 15)"><a xmlns:xlink="http://www.w3.org/1999/xlink" xlink:href="https://ourworldindata.org" target="_blank"><g><path fill="#1B2543" d="M0 0h211.2v130.1H0z"/><path fill="#E63912" d="M0 112.2h211.2v17.9H0z"/><g><path fill="none" d="M1.2 12.3h210.2v99.2H1.2z"/><path fill="#FFF" d="M37.8 32.2c0 12.7-7.7 19.4-17.1 19.4-9.7 0-16.6-7.5-16.6-18.7 0-11.7 7.3-19.3 17.1-19.3 10.1.1 16.6 7.7 16.6 18.6zm-28.6.6c0 7.9 4.3 14.9 11.8 14.9 7.5 0 11.8-6.9 11.8-15.3 0-7.3-3.8-14.9-11.8-14.9-7.9 0-11.8 7.3-11.8 15.3zM62.7 43.8c0 2.7.1 5.1.2 7.2h-4.3l-.3-4.3h-.1c-1.3 2.1-4 4.9-8.8 4.9-4.2 0-9.1-2.3-9.1-11.6V24.6h4.8v14.6c0 5 1.5 8.4 5.9 8.4 3.2 0 5.5-2.2 6.3-4.4.3-.7.4-1.6.4-2.5V24.6h4.8v19.2zM67.3 32.8c0-3.1-.1-5.8-.2-8.2h4.2l.2 5.2h.2c1.2-3.5 4.1-5.8 7.3-5.8.5 0 .9.1 1.4.2v4.5c-.5-.1-1-.2-1.6-.2-3.4 0-5.8 2.6-6.5 6.2-.1.7-.2 1.4-.2 2.2V51h-4.8V32.8zM95.4 51L86 14.2h5l4.4 18.6c1.1 4.6 2.1 9.2 2.7 12.7h.1c.6-3.7 1.8-8 3-12.8l4.9-18.5h5l4.5 18.7c1 4.4 2 8.7 2.6 12.6h.1c.8-4 1.8-8.1 3-12.7l4.9-18.5h4.9L120.6 51h-5L111 31.9c-1.1-4.7-1.9-8.3-2.4-12h-.1c-.7 3.7-1.5 7.3-2.8 12L100.4 51h-5zM154.9 37.6c0 9.8-6.8 14-13.2 14-7.2 0-12.7-5.2-12.7-13.6 0-8.8 5.8-14 13.1-14 7.7 0 12.8 5.5 12.8 13.6zm-21 .3c0 5.8 3.3 10.1 8 10.1 4.6 0 8-4.3 8-10.3 0-4.5-2.2-10.1-7.9-10.1s-8.1 5.2-8.1 10.3zM158.2 32.8c0-3.1-.1-5.8-.2-8.2h4.2l.2 5.2h.2c1.2-3.5 4.1-5.8 7.3-5.8.5 0 .9.1 1.4.2v4.5c-.5-.1-1-.2-1.6-.2-3.4 0-5.8 2.6-6.5 6.2-.1.7-.2 1.4-.2 2.2V51h-4.8V32.8zM173.5 12.3h4.8V51h-4.8V12.3zM206.5 12.3v31.9c0 2.3.1 5 .2 6.8h-4.3l-.2-4.6h-.2c-1.5 2.9-4.7 5.2-9 5.2-6.4 0-11.3-5.4-11.3-13.4-.1-8.8 5.4-14.2 11.9-14.2 4 0 6.8 1.9 8 4h.1V12.3h4.8zm-4.8 23.1c0-.6-.1-1.4-.2-2a7 7 0 00-6.9-5.6c-5 0-7.9 4.4-7.9 10.2 0 5.3 2.6 9.8 7.8 9.8 3.2 0 6.2-2.1 7.1-5.7.2-.7.2-1.3.2-2.1v-4.6zM42.8 64c.1 1.6-1.1 2.9-3.1 2.9-1.7 0-2.9-1.3-2.9-2.9 0-1.7 1.3-3 3-3 1.9 0 3 1.3 3 3zm-5.4 33.8V71.4h4.8v26.4h-4.8zM47.5 78.6c0-2.7-.1-5-.2-7.1h4.3l.3 4.4h.1c1.3-2.5 4.4-5 8.8-5 3.7 0 9.4 2.2 9.4 11.2v15.8h-4.8V82.6c0-4.3-1.6-7.8-6.1-7.8-3.2 0-5.6 2.2-6.5 4.9-.2.6-.3 1.4-.3 2.2v15.9h-4.8V78.6zM84 61.6c2.9-.4 6.3-.8 10.1-.8 6.8 0 11.7 1.6 14.9 4.6 3.3 3 5.2 7.3 5.2 13.2 0 6-1.9 10.9-5.3 14.3-3.4 3.4-9.1 5.3-16.3 5.3-3.4 0-6.2-.2-8.6-.4V61.6zm4.8 32.5c1.2.2 3 .3 4.8.3 10.2 0 15.7-5.7 15.7-15.6.1-8.7-4.9-14.2-14.9-14.2-2.5 0-4.3.2-5.6.5v29zM132.1 97.8l-.4-3.3h-.2a9.79 9.79 0 01-8.1 3.9c-5.4 0-8.1-3.8-8.1-7.6 0-6.4 5.7-9.9 15.9-9.8v-.5c0-2.2-.6-6.1-6-6.1-2.5 0-5 .8-6.9 2l-1.1-3.2c2.2-1.4 5.4-2.3 8.7-2.3 8.1 0 10.1 5.5 10.1 10.8v9.9c0 2.3.1 4.5.4 6.3h-4.3zm-.7-13.4c-5.3-.1-11.2.8-11.2 5.9 0 3.1 2.1 4.6 4.5 4.6 3.4 0 5.6-2.2 6.4-4.4.2-.5.3-1 .3-1.5v-4.6zM146.6 63.9v7.6h6.9v3.7h-6.9v14.2c0 3.3.9 5.1 3.6 5.1 1.3 0 2.2-.2 2.8-.3l.2 3.6c-.9.4-2.4.7-4.3.7-2.2 0-4-.7-5.2-2-1.4-1.4-1.9-3.8-1.9-6.9V75.1h-4.1v-3.7h4.1v-6.3l4.8-1.2zM171.4 97.8l-.4-3.3h-.2a9.79 9.79 0 01-8.1 3.9c-5.4 0-8.1-3.8-8.1-7.6 0-6.4 5.7-9.9 15.9-9.8v-.5c0-2.2-.6-6.1-6-6.1-2.5 0-5 .8-6.9 2l-1.1-3.2c2.2-1.4 5.4-2.3 8.7-2.3 8.1 0 10.1 5.5 10.1 10.8v9.9c0 2.3.1 4.5.4 6.3h-4.3zm-.7-13.4c-5.3-.1-11.2.8-11.2 5.9 0 3.1 2.1 4.6 4.5 4.6 3.4 0 5.6-2.2 6.4-4.4.2-.5.3-1 .3-1.5v-4.6z"/></g></g></a></g><a href="https://ourworldindata.org/grapher/children-per-woman-UN?tab=chart&amp;country=OWID_WRL" target="_blank"><text font-size="27" x="15" y="36.6" fill="#555"><tspan x="15" y="36.6">Children per woman</tspan></text></a><text font-size="14.4" x="15" y="55.5" fill="#666"><tspan x="15" y="55.52">Shown is the &apos;total fertility rate&apos; (TFR). The TFR is the number of children that would be born to a woman if she were</tspan><tspan x="15" y="71.36">to live to the end of her childbearing years and bear children in accordance with age-specific fertility rates of the</tspan><tspan x="15" y="87.2">specified year.</tspan></text></g><g class="LineChart"><defs><clipPath id="a"><path d="M19.07 0h830v894.2h-830z"/></clipPath></defs><g class="AxisBoxView"><g class="HorizontalAxis" fill="#666" text-anchor="middle" font-size="16.2"><text x="29.1" y="556.5">1950</text><text x="143.4" y="556.5">1960</text><text x="257.8" y="556.5">1970</text><text x="372.2" y="556.5">1980</text><text x="486.5" y="556.5">1990</text><text x="600.9" y="556.5">2000</text><text x="715.2" y="556.5">2010</text><text x="772.4" y="556.5">2015</text></g><g class="VerticalAxis" fill="#666" dominant-baseline="middle" text-anchor="end" font-size="16.2"><text x="24.07" y="535.3">0</text><text x="24.07" y="450.9">1</text><text x="24.07" y="366.6">2</text><text x="24.07" y="282.2">3</text><text x="24.07" y="197.8">4</text><text x="24.07" y="113.4">5</text></g><g class="AxisGridLines"><path stroke="#ccc" d="M29.07 535.3h743.35"/><path stroke="#ddd" stroke-dasharray="3,2" d="M29.07 450.9h743.35M29.07 366.6h743.35M29.07 282.2h743.35M29.07 197.8h743.35M29.07 113.4h743.35"/></g><g class="AxisGridLines" stroke="#ddd" stroke-dasharray="3,2"><path d="M29.1 535.3V109.4M143.4 535.3V109.4M257.8 535.3V109.4M372.2 535.3V109.4M486.5 535.3V109.4M600.9 535.3V109.4M715.2 535.3V109.4"/></g></g><g clip-path="url(#a)"><g class="HeightedLegend clickable"><g class="legendMark"><path fill="#3360a9" d="M782.42 323.65h10v2.5h-10z"/><text font-size="14.4" x="797.4" y="329.2" fill="#333"><tspan x="797.42" y="329.22">World</tspan></text></g></g><g class="Lines"><g class="key-World_0"><path stroke="#3360a9" stroke-linecap="round" d="M29 109l12 3 11 4 11 4 12 2 11 1h23l12-2 11-2 11-2 12-3 11-2 12-1 11-1 12 1 11 3 12 4 11 5 11 6 12 7 11 9 12 9 11 10 12 11 11 10 11 10 12 9 11 7 12 7 11 5 12 4 11 3 12 3 11 2 11 2 12 4 11 4 12 5 11 5 12 7 11 7 11 7 12 7 11 6 12 5 11 4 12 4 11 3 11 3 12 2 11 2 12 1 11 1 12 1 11 1 12 1 11 1 11 1 12 1 11 1 12 1 11 1h12l11 1 11 1" fill="none" stroke-width="1.5"/><g fill="#3360a9"><circle cx="29" cy="109" r="2"/><circle cx="41" cy="112" r="2"/><circle cx="52" cy="116" r="2"/><circle cx="63" cy="120" r="2"/><circle cx="75" cy="122" r="2"/><circle cx="86" cy="123" r="2"/><circle cx="98" cy="123" r="2"/><circle cx="109" cy="123" r="2"/><circle cx="121" cy="121" r="2"/><circle cx="132" cy="119" r="2"/><circle cx="143" cy="117" r="2"/><circle cx="155" cy="114" r="2"/><circle cx="166" cy="112" r="2"/><circle cx="178" cy="111" r="2"/><circle cx="189" cy="110" r="2"/><circle cx="201" cy="111" r="2"/><circle cx="212" cy="114" r="2"/><circle cx="224" cy="118" r="2"/><circle cx="235" cy="123" r="2"/><circle cx="246" cy="129" r="2"/><circle cx="258" cy="136" r="2"/><circle cx="269" cy="145" r="2"/><circle cx="281" cy="154" r="2"/><circle cx="292" cy="164" r="2"/><circle cx="304" cy="175" r="2"/><circle cx="315" cy="185" r="2"/><circle cx="326" cy="195" r="2"/><circle cx="338" cy="204" r="2"/><circle cx="349" cy="211" r="2"/><circle cx="361" cy="218" r="2"/><circle cx="372" cy="223" r="2"/><circle cx="384" cy="227" r="2"/><circle cx="395" cy="230" r="2"/><circle cx="407" cy="233" r="2"/><circle cx="418" cy="235" r="2"/><circle cx="429" cy="237" r="2"/><circle cx="441" cy="241" r="2"/><circle cx="452" cy="245" r="2"/><circle cx="464" cy="250" r="2"/><circle cx="475" cy="255" r="2"/><circle cx="487" cy="262" r="2"/><circle cx="498" cy="269" r="2"/><circle cx="509" cy="276" r="2"/><circle cx="521" cy="283" r="2"/><circle cx="532" cy="289" r="2"/><circle cx="544" cy="294" r="2"/><circle cx="555" cy="298" r="2"/><circle cx="567" cy="302" r="2"/><circle cx="578" cy="305" r="2"/><circle cx="589" cy="308" r="2"/><circle cx="601" cy="310" r="2"/><circle cx="612" cy="312" r="2"/><circle cx="624" cy="313" r="2"/><circle cx="635" cy="314" r="2"/><circle cx="647" cy="315" r="2"/><circle cx="658" cy="316" r="2"/><circle cx="670" cy="317" r="2"/><circle cx="681" cy="318" r="2"/><circle cx="692" cy="319" r="2"/><circle cx="704" cy="320" r="2"/><circle cx="715" cy="321" r="2"/><circle cx="727" cy="322" r="2"/><circle cx="738" cy="323" r="2"/><circle cx="750" cy="323" r="2"/><circle cx="761" cy="324" r="2"/><circle cx="772" cy="325" r="2"/></g></g></g></g></g><g class="SourcesFooter" fill="#777"><g class="clickable" fill="#777"><text font-size="12.6" x="15" y="581.6"><tspan x="15" y="581.58">Source: UN Population Division (2017 Revision)</tspan></text></g><text font-size="12.6" x="583.1" y="581.6"><tspan x="583.13" y="581.58"><a target="_blank" href="https://ourworldindata.org/fertility-rate" fill="#777">OurWorldInData.org/fertility-rate</a> • <a href="http://creativecommons.org/licenses/by-sa/4.0/deed.en_US" target="_blank" fill="#777">CC BY-SA</a></tspan></text></g></g></svg>

<svg xmlns="http://www.w3.org/2000/svg" version="1.1" style="font-family: 'Helvetica Neue', Helvetica, Arial, sans-serif; font-size: 18px; background-color: white; text-rendering: optimizeLegibility; -webkit-font-smoothing: antialiased;" width="850" height="600"><g class="ChartTab"><g class="HeaderView"><g opacity="0.8" transform="translate(770, 15) scale(0.31)"><a xmlns:xlink="http://www.w3.org/1999/xlink" xlink:href="https://ourworldindata.org" target="_blank"><g><rect x="0" y="0" fill="#1B2543" width="211.2" height="130.1"/><rect x="0" y="112.2" fill="#E63912" width="211.2" height="17.9"/><g><rect x="1.2" y="12.3" fill="none" width="210.2" height="99.2"/><path fill="#FFFFFF" d="M37.8,32.2c0,12.7-7.7,19.4-17.1,19.4c-9.7,0-16.6-7.5-16.6-18.7c0-11.7,7.3-19.3,17.1-19.3 C31.3,13.7,37.8,21.3,37.8,32.2z M9.2,32.8c0,7.9,4.3,14.9,11.8,14.9c7.5,0,11.8-6.9,11.8-15.3c0-7.3-3.8-14.9-11.8-14.9 C13.1,17.5,9.2,24.8,9.2,32.8z"/><path fill="#FFFFFF" d="M62.7,43.8c0,2.7,0.1,5.1,0.2,7.2h-4.3l-0.3-4.3h-0.1c-1.3,2.1-4,4.9-8.8,4.9c-4.2,0-9.1-2.3-9.1-11.6 V24.6h4.8v14.6c0,5,1.5,8.4,5.9,8.4c3.2,0,5.5-2.2,6.3-4.4c0.3-0.7,0.4-1.6,0.4-2.5V24.6h4.8V43.8z"/><path fill="#FFFFFF" d="M67.3,32.8c0-3.1-0.1-5.8-0.2-8.2h4.2l0.2,5.2h0.2c1.2-3.5,4.1-5.8,7.3-5.8c0.5,0,0.9,0.1,1.4,0.2v4.5 c-0.5-0.1-1-0.2-1.6-0.2c-3.4,0-5.8,2.6-6.5,6.2c-0.1,0.7-0.2,1.4-0.2,2.2V51h-4.8V32.8z"/><path fill="#FFFFFF" d="M95.4,51l-9.4-36.8h5l4.4,18.6c1.1,4.6,2.1,9.2,2.7,12.7h0.1c0.6-3.7,1.8-8,3-12.8l4.9-18.5h5l4.5,18.7 c1,4.4,2,8.7,2.6,12.6h0.1c0.8-4,1.8-8.1,3-12.7l4.9-18.5h4.9L120.6,51h-5L111,31.9c-1.1-4.7-1.9-8.3-2.4-12h-0.1 c-0.7,3.7-1.5,7.3-2.8,12L100.4,51H95.4z"/><path fill="#FFFFFF" d="M154.9,37.6c0,9.8-6.8,14-13.2,14c-7.2,0-12.7-5.2-12.7-13.6c0-8.8,5.8-14,13.1-14 C149.8,24,154.9,29.5,154.9,37.6z M133.9,37.9c0,5.8,3.3,10.1,8,10.1c4.6,0,8-4.3,8-10.3c0-4.5-2.2-10.1-7.9-10.1 C136.3,27.6,133.9,32.8,133.9,37.9z"/><path fill="#FFFFFF" d="M158.2,32.8c0-3.1-0.1-5.8-0.2-8.2h4.2l0.2,5.2h0.2c1.2-3.5,4.1-5.8,7.3-5.8c0.5,0,0.9,0.1,1.4,0.2v4.5 c-0.5-0.1-1-0.2-1.6-0.2c-3.4,0-5.8,2.6-6.5,6.2c-0.1,0.7-0.2,1.4-0.2,2.2V51h-4.8V32.8z"/><path fill="#FFFFFF" d="M173.5,12.3h4.8V51h-4.8V12.3z"/><path fill="#FFFFFF" d="M206.5,12.3v31.9c0,2.3,0.1,5,0.2,6.8h-4.3l-0.2-4.6H202c-1.5,2.9-4.7,5.2-9,5.2 c-6.4,0-11.3-5.4-11.3-13.4c-0.1-8.8,5.4-14.2,11.9-14.2c4,0,6.8,1.9,8,4h0.1V12.3H206.5z M201.7,35.4c0-0.6-0.1-1.4-0.2-2 c-0.7-3.1-3.3-5.6-6.9-5.6c-5,0-7.9,4.4-7.9,10.2c0,5.3,2.6,9.8,7.8,9.8c3.2,0,6.2-2.1,7.1-5.7c0.2-0.7,0.2-1.3,0.2-2.1V35.4z"/><path fill="#FFFFFF" d="M42.8,64c0.1,1.6-1.1,2.9-3.1,2.9c-1.7,0-2.9-1.3-2.9-2.9c0-1.7,1.3-3,3-3C41.7,61,42.8,62.3,42.8,64z M37.4,97.8V71.4h4.8v26.4H37.4z"/><path fill="#FFFFFF" d="M47.5,78.6c0-2.7-0.1-5-0.2-7.1h4.3l0.3,4.4h0.1c1.3-2.5,4.4-5,8.8-5c3.7,0,9.4,2.2,9.4,11.2v15.8h-4.8 V82.6c0-4.3-1.6-7.8-6.1-7.8c-3.2,0-5.6,2.2-6.5,4.9c-0.2,0.6-0.3,1.4-0.3,2.2v15.9h-4.8V78.6z"/><path fill="#FFFFFF" d="M84,61.6c2.9-0.4,6.3-0.8,10.1-0.8c6.8,0,11.7,1.6,14.9,4.6c3.3,3,5.2,7.3,5.2,13.2c0,6-1.9,10.9-5.3,14.3 c-3.4,3.4-9.1,5.3-16.3,5.3c-3.4,0-6.2-0.2-8.6-0.4V61.6z M88.8,94.1c1.2,0.2,3,0.3,4.8,0.3c10.2,0,15.7-5.7,15.7-15.6 c0.1-8.7-4.9-14.2-14.9-14.2c-2.5,0-4.3,0.2-5.6,0.5V94.1z"/><path fill="#FFFFFF" d="M132.1,97.8l-0.4-3.3h-0.2c-1.5,2.1-4.3,3.9-8.1,3.9c-5.4,0-8.1-3.8-8.1-7.6c0-6.4,5.7-9.9,15.9-9.8v-0.5 c0-2.2-0.6-6.1-6-6.1c-2.5,0-5,0.8-6.9,2l-1.1-3.2c2.2-1.4,5.4-2.3,8.7-2.3c8.1,0,10.1,5.5,10.1,10.8v9.9c0,2.3,0.1,4.5,0.4,6.3 H132.1z M131.4,84.4c-5.3-0.1-11.2,0.8-11.2,5.9c0,3.1,2.1,4.6,4.5,4.6c3.4,0,5.6-2.2,6.4-4.4c0.2-0.5,0.3-1,0.3-1.5V84.4z"/><path fill="#FFFFFF" d="M146.6,63.9v7.6h6.9v3.7h-6.9v14.2c0,3.3,0.9,5.1,3.6,5.1c1.3,0,2.2-0.2,2.8-0.3l0.2,3.6 c-0.9,0.4-2.4,0.7-4.3,0.7c-2.2,0-4-0.7-5.2-2c-1.4-1.4-1.9-3.8-1.9-6.9V75.1h-4.1v-3.7h4.1v-6.3L146.6,63.9z"/><path fill="#FFFFFF" d="M171.4,97.8l-0.4-3.3h-0.2c-1.5,2.1-4.3,3.9-8.1,3.9c-5.4,0-8.1-3.8-8.1-7.6c0-6.4,5.7-9.9,15.9-9.8v-0.5 c0-2.2-0.6-6.1-6-6.1c-2.5,0-5,0.8-6.9,2l-1.1-3.2c2.2-1.4,5.4-2.3,8.7-2.3c8.1,0,10.1,5.5,10.1,10.8v9.9c0,2.3,0.1,4.5,0.4,6.3 H171.4z M170.7,84.4c-5.3-0.1-11.2,0.8-11.2,5.9c0,3.1,2.1,4.6,4.5,4.6c3.4,0,5.6-2.2,6.4-4.4c0.2-0.5,0.3-1,0.3-1.5V84.4z"/></g></g></a></g><a href="https://ourworldindata.org/grapher/children-per-woman-UN?tab=chart&amp;country=OWID_WRL" target="_blank"><text font-size="27.00" x="15.0" y="36.6" fill="#555"><tspan x="15" y="36.6">Children per woman</tspan></text></a><text font-size="14.40" x="15.0" y="55.5" fill="#666"><tspan x="15" y="55.519999999999996">Shown is the 'total fertility rate' (TFR). The TFR is the number of children that would be born to a woman if she were</tspan><tspan x="15" y="71.36">to live to the end of her childbearing years and bear children in accordance with age-specific fertility rates of the</tspan><tspan x="15" y="87.2">specified year.</tspan></text></g><g class="LineChart"><defs><clipPath id="boundsClip-340"><rect x="19.072000000000003" y="0" width="830" height="894.2"></rect></clipPath></defs><g class="AxisBoxView"><g class="HorizontalAxis"><text x="29.1" y="556.5" fill="#666" text-anchor="middle" font-size="16.2">1950</text><text x="143.4" y="556.5" fill="#666" text-anchor="middle" font-size="16.2">1960</text><text x="257.8" y="556.5" fill="#666" text-anchor="middle" font-size="16.2">1970</text><text x="372.2" y="556.5" fill="#666" text-anchor="middle" font-size="16.2">1980</text><text x="486.5" y="556.5" fill="#666" text-anchor="middle" font-size="16.2">1990</text><text x="600.9" y="556.5" fill="#666" text-anchor="middle" font-size="16.2">2000</text><text x="715.2" y="556.5" fill="#666" text-anchor="middle" font-size="16.2">2010</text><text x="772.4" y="556.5" fill="#666" text-anchor="middle" font-size="16.2">2015</text></g><g class="VerticalAxis"><text x="24.07" y="535.3" fill="#666" dominant-baseline="middle" text-anchor="end" font-size="16.2">0</text><text x="24.07" y="450.9" fill="#666" dominant-baseline="middle" text-anchor="end" font-size="16.2">1</text><text x="24.07" y="366.6" fill="#666" dominant-baseline="middle" text-anchor="end" font-size="16.2">2</text><text x="24.07" y="282.2" fill="#666" dominant-baseline="middle" text-anchor="end" font-size="16.2">3</text><text x="24.07" y="197.8" fill="#666" dominant-baseline="middle" text-anchor="end" font-size="16.2">4</text><text x="24.07" y="113.4" fill="#666" dominant-baseline="middle" text-anchor="end" font-size="16.2">5</text></g><g class="AxisGridLines"><line x1="29.07" y1="535.3" x2="772.42" y2="535.3" stroke="#ccc"></line><line x1="29.07" y1="450.9" x2="772.42" y2="450.9" stroke="#ddd" stroke-dasharray="3,2"></line><line x1="29.07" y1="366.6" x2="772.42" y2="366.6" stroke="#ddd" stroke-dasharray="3,2"></line><line x1="29.07" y1="282.2" x2="772.42" y2="282.2" stroke="#ddd" stroke-dasharray="3,2"></line><line x1="29.07" y1="197.8" x2="772.42" y2="197.8" stroke="#ddd" stroke-dasharray="3,2"></line><line x1="29.07" y1="113.4" x2="772.42" y2="113.4" stroke="#ddd" stroke-dasharray="3,2"></line></g><g class="AxisGridLines"><line x1="29.1" y1="535.30" x2="29.1" y2="109.40" stroke="#ddd" stroke-dasharray="3,2"></line><line x1="143.4" y1="535.30" x2="143.4" y2="109.40" stroke="#ddd" stroke-dasharray="3,2"></line><line x1="257.8" y1="535.30" x2="257.8" y2="109.40" stroke="#ddd" stroke-dasharray="3,2"></line><line x1="372.2" y1="535.30" x2="372.2" y2="109.40" stroke="#ddd" stroke-dasharray="3,2"></line><line x1="486.5" y1="535.30" x2="486.5" y2="109.40" stroke="#ddd" stroke-dasharray="3,2"></line><line x1="600.9" y1="535.30" x2="600.9" y2="109.40" stroke="#ddd" stroke-dasharray="3,2"></line><line x1="715.2" y1="535.30" x2="715.2" y2="109.40" stroke="#ddd" stroke-dasharray="3,2"></line></g></g><g clip-path="url(#boundsClip-340)"><g class="HeightedLegend clickable"><g class="legendMark"><rect x="782.4159999999999" y="317.7" width="52.584" height="14.4" fill="#fff" opacity="0"></rect><rect x="782.4159999999999" y="323.65" width="10" height="2.5" fill="#3360a9"></rect><text font-size="14.40" x="797.4" y="329.2" fill="#333"><tspan x="797.4159999999999" y="329.21999999999997">World</tspan></text></g></g><g class="Lines"><rect x="29" y="109" width="743" height="426" fill="rgba(255,255,255,0)" opacity="0"></rect><g class="key-World_0"><path stroke="#3360a9" stroke-linecap="round" d="M29 109L41 112L52 116L63 120L75 122L86 123L98 123L109 123L121 121L132 119L143 117L155 114L166 112L178 111L189 110L201 111L212 114L224 118L235 123L246 129L258 136L269 145L281 154L292 164L304 175L315 185L326 195L338 204L349 211L361 218L372 223L384 227L395 230L407 233L418 235L429 237L441 241L452 245L464 250L475 255L487 262L498 269L509 276L521 283L532 289L544 294L555 298L567 302L578 305L589 308L601 310L612 312L624 313L635 314L647 315L658 316L670 317L681 318L692 319L704 320L715 321L727 322L738 323L750 323L761 324L772 325" fill="none" stroke-width="1.5"></path><g fill="#3360a9"><circle cx="29" cy="109" r="2"></circle><circle cx="41" cy="112" r="2"></circle><circle cx="52" cy="116" r="2"></circle><circle cx="63" cy="120" r="2"></circle><circle cx="75" cy="122" r="2"></circle><circle cx="86" cy="123" r="2"></circle><circle cx="98" cy="123" r="2"></circle><circle cx="109" cy="123" r="2"></circle><circle cx="121" cy="121" r="2"></circle><circle cx="132" cy="119" r="2"></circle><circle cx="143" cy="117" r="2"></circle><circle cx="155" cy="114" r="2"></circle><circle cx="166" cy="112" r="2"></circle><circle cx="178" cy="111" r="2"></circle><circle cx="189" cy="110" r="2"></circle><circle cx="201" cy="111" r="2"></circle><circle cx="212" cy="114" r="2"></circle><circle cx="224" cy="118" r="2"></circle><circle cx="235" cy="123" r="2"></circle><circle cx="246" cy="129" r="2"></circle><circle cx="258" cy="136" r="2"></circle><circle cx="269" cy="145" r="2"></circle><circle cx="281" cy="154" r="2"></circle><circle cx="292" cy="164" r="2"></circle><circle cx="304" cy="175" r="2"></circle><circle cx="315" cy="185" r="2"></circle><circle cx="326" cy="195" r="2"></circle><circle cx="338" cy="204" r="2"></circle><circle cx="349" cy="211" r="2"></circle><circle cx="361" cy="218" r="2"></circle><circle cx="372" cy="223" r="2"></circle><circle cx="384" cy="227" r="2"></circle><circle cx="395" cy="230" r="2"></circle><circle cx="407" cy="233" r="2"></circle><circle cx="418" cy="235" r="2"></circle><circle cx="429" cy="237" r="2"></circle><circle cx="441" cy="241" r="2"></circle><circle cx="452" cy="245" r="2"></circle><circle cx="464" cy="250" r="2"></circle><circle cx="475" cy="255" r="2"></circle><circle cx="487" cy="262" r="2"></circle><circle cx="498" cy="269" r="2"></circle><circle cx="509" cy="276" r="2"></circle><circle cx="521" cy="283" r="2"></circle><circle cx="532" cy="289" r="2"></circle><circle cx="544" cy="294" r="2"></circle><circle cx="555" cy="298" r="2"></circle><circle cx="567" cy="302" r="2"></circle><circle cx="578" cy="305" r="2"></circle><circle cx="589" cy="308" r="2"></circle><circle cx="601" cy="310" r="2"></circle><circle cx="612" cy="312" r="2"></circle><circle cx="624" cy="313" r="2"></circle><circle cx="635" cy="314" r="2"></circle><circle cx="647" cy="315" r="2"></circle><circle cx="658" cy="316" r="2"></circle><circle cx="670" cy="317" r="2"></circle><circle cx="681" cy="318" r="2"></circle><circle cx="692" cy="319" r="2"></circle><circle cx="704" cy="320" r="2"></circle><circle cx="715" cy="321" r="2"></circle><circle cx="727" cy="322" r="2"></circle><circle cx="738" cy="323" r="2"></circle><circle cx="750" cy="323" r="2"></circle><circle cx="761" cy="324" r="2"></circle><circle cx="772" cy="325" r="2"></circle></g></g></g></g></g><g style="fill: #777;" class="SourcesFooter"><g style="fill: #777;" class="clickable"><text font-size="12.60" x="15.0" y="581.6"><tspan x="15" y="581.58">Source: UN Population Division (2017 Revision)</tspan></text></g><text font-size="12.60" x="583.1" y="581.6"><tspan x="583.126" y="581.58"><a target='_blank' style='fill: #777;' href='https://ourworldindata.org/fertility-rate'>OurWorldInData.org/fertility-rate</a> • <a style="fill: #777;" href="http://creativecommons.org/licenses/by-sa/4.0/deed.en_US" target="_blank">CC BY-SA</a></tspan></text></g></g></svg>
